X: 31389
T: Paddy O'Sullivan's
R: reel
M: 4/4
K: Edorian
|:BE~E2 BE~E2|FDFA d3c|BE~E2 A3E|1 FDFA d3c:|2 FDFA B3c||
|:d2ed B2BB|BAFA BABc|d3e f2ed|1 BAFA B3c:|2 BAFA d3c||

